X:1
T:Tarbolton (reel), The
M:4/4
L:1/8
R: reel
O:Trad. (15.4.2015/NS)
K:Edor
  D | "Em" Eeed     e2BA |      GBAF     GFEF | "D"  Dddc    d2AF |      DFAF      GFED  |
      "Em" Eeed     efge |      fedf     edBA | "C" G2BG "D" FGAd | "Hm" BGAF "Em" GEE  :|
|:f | "Em" gfef     gebe |      gebe "G" gfec | "D" d2fd     Adfd |      ABAG "Hm" FDDF  |
      "C"  G2BG "D" FGAG | "Em" Eeef     gfed | "D" B2BA     GFGA |      BGAF "Em" GEE  :|
